X: 20721
M: 6/8
L: 1/8
K: F
V: 1 staves=3
(3c/d/e/ |\
{f}f2f {f}f2f | {f}f2f {f}f2f | agf gfe | fff f2z |\
{g}g2g {g}g2g | {g}g2g {g}g2g | gfe dc=B | (ccc c2) :|
|: (A/B/) |\
c3 d2c | cfz cf (A/B/) | c3 d2c | cgz cg (A/B/) |\
c3 d2c | caz gfz | dfz cfz | egz cde | f3- f2 :|
|: A/B/ |\
.c2z .c2z | c3 c=Bc | A3 A3 | A3 ABc |\
d3 d3 | d3 fed | c3 c3 |
c3 cBA | G3 G3 | GAB cde | f2z z2e |\
f2z z2g | f2[ec] f2[ec] | f3- f2 H:|
V: 2
z |\
e2e f2f | e2e f2f | edc FED | (EEE E2) :|
|: z |\
|: z |\
.A2z .A2z | A3 AGA | F3 F3 | F3 FGA |\
V: 3 clef=bass middle=d
z |\
f3 f3 | f3 f3 | A3 c3 | fff f2z |\
c3 c3 | c3 c3 | e2f g2G | (ccc c2) :|
|: z |\
f3 b2z | z3 z3 | f3 b2z | z3 z3 |\
f3 b2z | f2z f2z | B2z f2z | c2z c3 | f3- f2 :|
|: z |\
.f2z .f2z | f3 f3 | f3 f3 | f3 f3 |\
f3 f3 | c3 c3 | c3 c3 | f2z z2c |\
f2z z2c | f2c f2c | f3- f2 H:|


